X:1
T:James Gibb editions
T:Pueri Hebraeorum - Palestrina
T:#
%%score [ 1 2 3 4 ]
L:1/8
Q:1/4=108
M:2/2
K:C
V:1 treble nm="Alto I" snm="A I"
V:2 treble nm="Alto II" snm="A II"
V:3 treble-8 nm="Tenor" snm="T"
V:4 bass nm="Bass" snm="B"
V:1
"^Pueri Hebraeorum""^Giovanni Pierluigi da Palestrina\n(1526-94)" z8 | G6 E2 | E4 (C3 D | %3
w: |Pu- e-|ri He\- *|
 E4) A,2 (A2- | AG F3 EED/C/ | D4 E4) |[M:2/2] D4 z2 G2- | G2 E2 (E3 F | G4) E4- | E2 C2 D4 | G8 | %11
w: * brae- o\-|||rum, pu\-|* e- ri *|* He\-|* brae- o-|rum,|
 z2 E2 E2 E2 | F6 E2 | D2 G2 G4 | G2 z G G2 G2 | A6 G2 | F2 E2 D4 | D4 z2 (CD | EF) G2 (C4 | D8) | %20
w: por- tan- tes|ra- mos|o- li- va-|rum, por- tan- tes|ra- mos|o- li- va-|rum, o\- *|* * li- va\-||
 D4 z4 | E2 EF G2 A2 | G2 F2 E4 | C2 CD E2 F2 | E2 A2 G4- | G4 z2 E2- | E2 D2 E4- | E2 C2 (F4- | %28
w: rum,|ob- vi- a- ve- runt|Do- mi- no,|ob- vi- a- ve- runt|Do- mi- no,|* Do\-|* mi- no|* cla- ma\-|
 F2 ED F2) E2- | E2 E2 (F3 G) | (A4 G4) | G4 z2 G2- | G2 G2 E4 | (CDEF G2) E2 | (F3 E CDEC | %35
w: * * * * tes|* et di\- *|cen\- *|tes: Ho\-|* san- na|in * * * * ex-|cel\- * * * * *|
 D2 E2) D4 | z2 G2 G2 G2 | E4 D2 (C2- | C2 B,2 A,4) | D8 | z8 | z2 G2 G2 G2 | E2 (CD EFGE | %43
w: * * sis:|Ho- san- na|in ex- cel\-||sis,||Ho- san- na|in ex\- * * * * *|
 FG) (A4 G2- | G2 ^F2) G4- | G4 z2[Q:1/4=107] G2 | %46
w: * * cel\- *|* * sis,|* Ho-|
[Q:1/4=105] G2[Q:1/4=103] G2[Q:1/4=101] E2[Q:1/4=99] F2 |[Q:1/4=95] G8 |[Q:1/4=92] !fermata!G8 |] %49
w: san- na in ex-|cel-|sis.|
V:2
 G6 E2 | E8 | (C3 D E4) | A,2 (A3 G F2 | E2 D3 C C2- | C2 B,2 CDEF) |[M:2/2] G8 | z2 G4 E2 | %8
w: Pu- e-|ri|He\- * *|brae- o\- * *|||rum,|pu- e-|
 (E3 F G2) (A2- | AG G4) F2 | E4 D4 | z2 G2 G2 G2 | A6 G2 | F2 E2 D4 | D2 D2 D2 E2 | F6 E2 | %16
w: ri * * He\-|* * * brae-|o- rum,|por- tan- tes|ra- mos|o- li- va-|rum, por- tan- tes|ra- mos|
 A2 G2 (G4- | G4 E3 D) | C2 D2 F2 (G2- | G2 ^FE F4) | G8 | z8 | z8 | E2 EF G2 A2 | G2 F2 E4- | %25
w: o- li- va\-||rum, o- li- va\-||rum,|||ob- vi- a- ve- runt|Do- mi- no,|
 E4 E2 EF | G2 A2 A2 ^G2 | A2 E2 (A3 G | F2 G2) A4- | A4 A4 | F4 E4 | D8 | z2 G2 G2 G2 | %33
w: * ob- vi- a-|ve- runt Do- mi-|no, cla- man\- *|* * tes|* et|di- cen-|tes:|Ho- san- na|
 E2 (CD EFGE) | (A6 GF | G4) (G3 F/E/ | D4) z2 G2 | G2 G2 A2 E2 | F2 G2 A4 | z2 G2 G2 G2 | %40
w: in ex\- * * * * *|cel\- * *|* sis: * *|* Ho-|san- na in ex-|cel\- * sis,|Ho- san- na|
 E2 (CD EFGE) | (F2 E2) D4 | G4 G2 E2 | A4 F2 E2 | D2 z D D2 D2 | (B,CDB, E3 D | C2 B,2) C4 | D8 | %48
w: in ex\- * * * * *|cel\- * sis,|Ho- sa- na|in ex- cel-|sis, Ho- san- na|in * * * * *|* * ex-|cel-|
 !fermata!E8 |] %49
w: sis.|
V:3
 z8 | z4 c4- | c2 A2 A4- | A4 (F3 G | A2) D2 A4 | G4 z2 c2- |[M:2/2][K:treble-8] c2 B2 B4 | %7
w: |Pu\-|* e- ri|* He\- *|* brae- o-|rum, pu\-|* e- ri|
 (G3 A B2) G2 | c4 B2 (c2- | cB G2 A2) B2 | c4 B4 | z2 c2 c2 c2 | c6 c2 | A2 c2 B4 | B2 G2 B2 c2 | %15
w: He\- * * brae-|o- rum, He\-|* * * * brae-|o- rum,|por- tan- tes|ra- mos|o- li- va-|rum, por- tan- tes|
 (F3 G AB c2) | F2 c4 (BA) | (B4 c4- | c2 B2 A2 G2 | A8) | B4 G2 GA | B2 c2 (B2 A2) | B4 c4 | %23
w: ra\- * * * *|mos o- li\- *|va\- *|||rum, ob- vi- a-|ve- runt Do\- *|mi- no,|
 A2 Ad c2 F2 | c2 F2 C2 c2- | c2 BA B2 c2 | (B2 A2 B3) B | A4 z2 A2 | d6 c2 | z2 c4 A2 | %30
w: ob- vi- a- ve- runt|Do- mi- no, ob|* vi- a ve- runt|Do\- * * mi-|no, cla-|man- tes|et di-|
 (A2 d4 c2- | c2 BA) B4- | B4 z4 | z2 c2 c2 c2 | A2 (FG ABcA) | (B2 c4 BA | B3 A B2 c2) | B4 z4 | %38
w: cen\- * *|* * * tes:||Ho- san- na|in ex\- * * * * *|cel\- * * *||sis:|
 z2 d2 d2 d2 | B2 (GA BcdB) | (c3 B A2 G2 | A2 c4 B2) | c2 c2 c2 c2 | A2 (FG AB c2) | A4 G2 B2 | %45
w: Ho- san- na|in ex\- * * * * *|cel\- * * *||sis, Ho- san- na|in ex\- * * * *|cel- sis, Ho-|
 d2 B2 (cB) (e2- | e2 d4) (c2- | c2 BA B4) | !fermata!c8 |] %49
w: san- na in * ex\-|* * cel\-||sis.|
V:4
 z8 | z8 | z8 | z8 | z8 | z8 |[M:2/2] G,6 E,2 | E,8 | (C,3 D, E,2) A,,2 | (E,4 D,4 | %10
w: ||||||Pu- e-|ri|He\- * * brae-|o\- *|
 C,D,E,F,) G,4 | z2 C,2 C,2 C,2 | F,6 C,2 | D,2 C,2 G,4 | G,4 z4 | z8 | z4 G,4 | G,2 G,2 A,4- | %18
w: * * * * rum,|por- tan- tes|ra- mos|o- li- va-|rum,||por-|tan- tes ra\-|
 A,2 G,2 F,2 E,2 | D,8 | G,4 E,2 E,F, | G,2 A,2 (G,2 F,2 | E,2) D,2 C,4 | z8 | z8 | %25
w: * mos o- li-|va-|rum, ob- vi- a-|ve- runt Do\- *|* mi- no,|||
 E,2 E,F, G,2 A,2 | (G,2 F,2 E,3) E, | A,4 z2 F,2 | _B,4 A,4- | A,4 F,4 | D,4 (E,3 F, | G,8) | %32
w: ob- vi- a- ve- runt|Do\- * * mi-|no, cla-|man- tes|* et|di- cen\- *||
 G,4 z4 | z8 | z8 | z4 G,4 | G,2 G,2 E,2 (C,D, | E,F,G,E, F,G, A,2- | A,2) (G,4 ^F,2) | G,8 | %40
w: tes:|||Ho-|san- na in ex\- *||* cel\- *|sis,|
 C,4 C,2 E,2 | D,2 C,2 G,4 | C,4 z2 C,2 | (D,3 E,) (F,2 C,2) | D,4 z2 G,2 | G,2 G,2 E,2 (C,D, | %46
w: Ho- san- na|in ex cel-|sis, in|ex\- * cel\- *|sis, Ho-|san- na in ex\- *|
 E,F, G,F,/G,/) (A,4 | G,8) | !fermata!C,8 |] %49
w: * * * * * cel\-||sis.|

